packages/radix-icons/twoTone/15/triangle-up.svg

<svg width="15" height="15" fill="none" xmlns="http://www.w3.org/2000/svg">
  <path d="M4 9H11L7.5 4.5L4 9Z" fill="currentColor" opacity=".2" />
  <path
    fill-rule="evenodd"
    clip-rule="evenodd"
    d="M3.10169 9.43935C3.2695 9.78245 3.61807 10 4.00001 10H11C11.3819 10 11.7305 9.78245 11.8983 9.43935C12.0661 9.09625 12.0238 8.68754 11.7894 8.38606L8.28936 3.88606C8.0999 3.64247 7.8086 3.5 7.50001 3.5C7.19142 3.5 6.90011 3.64247 6.71066 3.88606L3.21066 8.38606C2.97617 8.68754 2.93389 9.09625 3.10169 9.43935ZM5.26687 9H4.00001L4.77779 8L6.86658 5.31441L7.50001 4.5L8.13344 5.31441L10.2222 8L11 9H9.73315H5.26687Z"
    fill="currentColor"
  />
</svg>

<svg width="15" height="15" fill="none" xmlns="http://www.w3.org/2000/svg">
  <path d="M4 9h7L7.5 4.5 4 9z" fill="currentColor" opacity=".2" />
  <path
    fill-rule="evenodd"
    clip-rule="evenodd"
    d="M3.102 9.44A1 1 0 004 10h7a1 1 0 00.79-1.614l-3.5-4.5a1 1 0 00-1.58 0l-3.5 4.5a1 1 0 00-.108 1.053zM5.267 9H4l.778-1 2.089-2.686L7.5 4.5l.633.814L10.223 8 11 9H5.267z"
    fill="currentColor"
  />
</svg>
